packages/sources/icons/src/vitamix/volume-up-line.svg

<svg width="16" height="16" viewBox="0 0 16 16" xmlns="http://www.w3.org/2000/svg"><path fill-rule="evenodd" clip-rule="evenodd" d="M1.33329 10.6666H3.92596L7.45529 13.5546C7.55497 13.6364 7.69283 13.6533 7.80932 13.5981C7.92581 13.5429 8.00005 13.4255 7.99996 13.2966V2.70331C8.00005 2.57441 7.92581 2.45702 7.80932 2.40184C7.69283 2.34666 7.55497 2.36359 7.45529 2.44531L3.92596 5.33331H1.33329C0.965103 5.33331 0.666626 5.63179 0.666626 5.99998V9.99998C0.666626 10.3682 0.965103 10.6666 1.33329 10.6666ZM4.40196 6.66666L6.66663 4.81333V11.1867L4.40196 9.33333H1.99996V6.66666H4.40196ZM12.9373 13.4226L11.9933 12.4786C13.2716 11.3412 14.002 9.71106 13.9999 7.99997C14.0016 6.19908 13.1927 4.49307 11.7973 3.35463L12.7439 2.40797C14.3881 3.79993 15.3354 5.84569 15.3333 7.99997C15.3333 10.1486 14.4093 12.0813 12.9373 13.4226ZM9.62725 10.1126L10.5753 11.0606C11.4466 10.3266 11.9999 9.22796 11.9999 7.99996C12.001 6.72859 11.3967 5.53266 10.3726 4.7793L9.41325 5.73863C10.1666 6.20996 10.6666 7.04663 10.6666 7.99996C10.6673 8.82745 10.2832 9.60822 9.62725 10.1126Z"/></svg>

<svg width="16" height="16" xmlns="http://www.w3.org/2000/svg"><path fill-rule="evenodd" clip-rule="evenodd" d="M1.333 10.667h2.593l3.53 2.888A.333.333 0 0 0 8 13.297V2.703a.333.333 0 0 0-.545-.258L3.926 5.333H1.333A.667.667 0 0 0 .667 6v4c0 .368.298.667.666.667Zm3.069-4 2.265-1.854v6.374L4.402 9.333H2V6.667h2.402Zm8.535 6.756-.944-.944A5.985 5.985 0 0 0 14 8a5.988 5.988 0 0 0-2.203-4.645l.947-.947A7.317 7.317 0 0 1 15.334 8a7.315 7.315 0 0 1-2.397 5.423Zm-3.31-3.31.948.948A3.991 3.991 0 0 0 12 8a3.994 3.994 0 0 0-1.627-3.22l-.96.959A2.663 2.663 0 0 1 10.667 8c0 .827-.384 1.608-1.04 2.113Z"/></svg>
